packages/bezier-icons/icons/qr-code.svg

<svg width="24" height="24" viewBox="0 0 24 24" fill="none" xmlns="http://www.w3.org/2000/svg">
<path fill-rule="evenodd" clip-rule="evenodd" d="M5 5H9V9H5V5ZM3 5C3 3.89543 3.89543 3 5 3H9C10.1046 3 11 3.89543 11 5V9C11 10.1046 10.1046 11 9 11H5C3.89543 11 3 10.1046 3 9V5ZM5 15H9V19H5V15ZM3 15C3 13.8954 3.89543 13 5 13H9C10.1046 13 11 13.8954 11 15V19C11 20.1046 10.1046 21 9 21H5C3.89543 21 3 20.1046 3 19V15ZM19 5H15V9H19V5ZM15 3C13.8954 3 13 3.89543 13 5V9C13 10.1046 13.8954 11 15 11H19C20.1046 11 21 10.1046 21 9V5C21 3.89543 20.1046 3 19 3H15ZM14.5 13C13.6716 13 13 13.6716 13 14.5C13 15.3284 13.6716 16 14.5 16C15.3284 16 16 15.3284 16 14.5C16 13.6716 15.3284 13 14.5 13ZM15.5 17C15.5 16.1716 16.1716 15.5 17 15.5C17.8284 15.5 18.5 16.1716 18.5 17C18.5 17.8284 17.8284 18.5 17 18.5C16.1716 18.5 15.5 17.8284 15.5 17ZM14.5 18C13.6716 18 13 18.6716 13 19.5C13 20.3284 13.6716 21 14.5 21C15.3284 21 16 20.3284 16 19.5C16 18.6716 15.3284 18 14.5 18ZM18 14.5C18 13.6716 18.6716 13 19.5 13C20.3284 13 21 13.6716 21 14.5C21 15.3284 20.3284 16 19.5 16C18.6716 16 18 15.3284 18 14.5ZM19.5 18C18.6716 18 18 18.6716 18 19.5C18 20.3284 18.6716 21 19.5 21C20.3284 21 21 20.3284 21 19.5C21 18.6716 20.3284 18 19.5 18Z" fill="#313234"/>
</svg>

<svg xmlns="http://www.w3.org/2000/svg" width="24" height="24" fill="none" viewBox="0 0 24 24"><path fill="#313234" fill-rule="evenodd" d="M5 5h4v4H5zM3 5a2 2 0 0 1 2-2h4a2 2 0 0 1 2 2v4a2 2 0 0 1-2 2H5a2 2 0 0 1-2-2zm2 10h4v4H5zm-2 0a2 2 0 0 1 2-2h4a2 2 0 0 1 2 2v4a2 2 0 0 1-2 2H5a2 2 0 0 1-2-2zM19 5h-4v4h4zm-4-2a2 2 0 0 0-2 2v4a2 2 0 0 0 2 2h4a2 2 0 0 0 2-2V5a2 2 0 0 0-2-2zm-.5 10a1.5 1.5 0 1 0 0 3 1.5 1.5 0 0 0 0-3m1 4a1.5 1.5 0 1 1 3 0 1.5 1.5 0 0 1-3 0m-1 1a1.5 1.5 0 1 0 0 3 1.5 1.5 0 0 0 0-3m3.5-3.5a1.5 1.5 0 1 1 3 0 1.5 1.5 0 0 1-3 0m1.5 3.5a1.5 1.5 0 1 0 0 3 1.5 1.5 0 0 0 0-3" clip-rule="evenodd"/></svg>
